X:30
T: Thadelo Sullivan's #2
S: "Johnny O'Leary of Sliabh Luachra" (#184)
Z: B.Black
L: 1/8
M: 4/4
R: hornpipe
N: This is in fact a "single" hornpipe (i.e., no repeats).
K: D
(3ded ef g2 fg|(3efg ed B4|dcdB A2 A2|dedB A4|
d2 ef g2 fg|(3efg ed B4|dcde dBAB|G4 G3B ||
d2 BB BABd|e2 A2 A4|d2 BA-AGA=c|B2 G2 G3e|
d2 BB BABd|e2 A2 A4|dcde dBAB|G4 G4 ||
